X:100
T:Lord Nelson's Waltz TS.100
M:3/8
L:1/8
Q:3/8=50
S:Thomas Sands' MS,1810,Lincolnshire
R:waltz
O:England;Lincolnshire
Z:vmp.Ruairidh Greig, 2011
K:C
G,|CCC|B,C/B,/A,/G,/|CCC|B,C/B,/A,/G,/|CEG|ceg|fdB|c2:|
|:c|e2g|g2e|aaf|gge|ceg|g2aq|fdB|c2:|
K:F
c|cAB|cde|fed|c2A|BdB|AcA|BGB|A2A/B/||
cAB|cde|fed|cBA|Bgg|Aff|bge|f2|]

